!!!OTL@@DE: Der Rose Sendung
!!!COM: Himmel, Friedrich Heinrich
!!!CDT: 1814
!!!OMD: Sanft und lieblich
!!!LYR: Tiedge, Christoph August
!!!LDT: 1812
!!!OPR: Aus: Das Echo oder Alexis und Ida
!!!OCL: Erk, Ludwig
!!!GCO: Deutscher Liederschatz, Band 1
**kern	**kern	**kern	**text
*staff3	*staff2	*staff1	*
*Ipiano	*Ipiano	*Ivox	*
=1-	=1-	=1-	=1-
*clefF4	*clefG2	*clefG2	*
*k[b-e-a-d-]	*k[b-e-a-d-]	*k[b-e-a-d-]	*
*A-:	*A-:	*A-:	*
*M3/4	*M3/4	*M3/4	*
*MM100	*MM100	*MM100	*
2.AA-\ 2.A-\	(8c/L	4r	.
.	8e-/	.	.
.	8c/	4r	.
.	8e-/	.	.
.	8c/	8cc\	An
.	8e-/J)	8cc\	A-
=2	=2	=2	=2
2.E-\ 2.G\	(8d-/L	(8cc\L	-le-
.	8e-/	8b-\J)	.
.	8d-/	8b-\	-xis
.	8e-/	8r	.
.	8d-/	8b-\	send'
.	8e-/J)	8b-\	ich
=3	=3	=3	=3
2AA-\ 2A-\	(8c/L	(4b-\	dich;
.	8e-/	.	.
.	8c/	8a-/)	.
.	8e-/	8r	.
4r	8c/	8a-/	er
.	8e-/J)	8a-/	wird,
=4	=4	=4	=4
2EE-/ 2E-/	(8B-/ 8d-/L	(4a-/	Ro-
.	8e-/	.	.
.	8B-/ 8d-/	8g/)	.
.	8e-/	8e-/	se,
4E-\	8B-/ 8d-/	8f/	dich
.	8e-/J)	8g/	nun
=5	=5	=5	=5
2AA-/ 2E-/	(8c/L	(8.b-/L	pfle-
.	8e-/	.	.
.	.	16a-/Jk)	.
.	8c/	8a-/	-gen;
.	8e-/	8r	.
4r	8c/	8cc\	l&auml;ch-
.	8e-/J)	8cc\	-le
=6	=6	=6	=6
2.E-^\ 2.G^\	(8B-/ 8d-/L	(8.cc\L	freund-
.	8e-/	.	.
.	.	16b-\Jk)	.
.	8B-/ 8d-/	8b-\	-lich
.	8e-/	8r	.
.	.	(b-16q/LL	.
.	.	cc16q/JJ)	.
.	8B-/ 8d-/	12dd-\L	ihm
.	.	12cc\J	.
.	8e-/J)	.	.
.	.	12b-\	ent-
=7	=7	=7	=7
2E-\ 2A-\	(8c/L	(8.b-/L	-ge-
.	8e-/	.	.
.	.	16a-/Jk)	.
.	8c/	8a-/	-gen,
.	8e-/	8r	.
4E-\ 4A-\	8c/	12cc\L	dass
.	.	12b-\J	.
.	8e-/J)	.	.
.	.	12a-/	ihm
=8	=8	=8	=8
4EE-/ 4E-/	(8B-/ 8d-/L	(4a-/	sei,
.	8e-/	.	.
4EE-/ 4E-/	8B-/ 8d-/	8g/)	.
.	8e-/	8e-/	als
4EE-/ 4E-/	8B-/ 8d-/	8f/	s&auml;-
.	8e-/J)	8g/	-h'er
=9	=9	=9	=9
4AAA-/ 4AA-/	(8c/L	4a-/	mich!
.	8e-/)	.	.
8C'/	8a-'/	4r	.
8E-'/L	8e-'/	.	.
8C'/	8a-'/	4r	.
8AA-'/J	8cc'/J	.	.
=10	=10	=10	=10
4EE-/ 4E-/	8g'/ 8b-'/L	8.b-\	Frisch,
.	(8g/ 8b-/	.	.
.	.	16b-\	wie
4r	8a-/ 8cc/	8cc\	du
.	8g/) 8b-/	8b-\	der
8r	8a-'/ 8cc'/	8cc\	Knosp'
8B-\	8f'/ 8ddn'/J	8ddn\	ent-
=11	=11	=11	=11
(8.E-\L	4g\ 4ee-\	4ee-\	-quollst,
16G\Jk)	.	.	.
4B-\	8r	8r	.
.	(8g/ 8b-/L	(8b-\L	send'
8r	8a-/) 8cc/	8cc\J)	.
8B-\	8f'/ 8ddn'/J	8ddn\	ich
=12	=12	=12	=12
(8.E-\L	4g\ 4ee-\	4ee-\	dich;
16G\Jk)	.	.	.
4B-\	8r	8r	.
.	(8g/ 8b-/L	(8b-\	er
.	.	ddnX16q/	.
8r	8a-/) 8cc/	8cc\)	wird
.	.	(ee-16q/	.
8BB-\ 8B-\	8f'/ 8ddn'/J	8ddn\)	dich
=13	=13	=13	=13
4EE-/ 4E-/	4g\ 4ee-\	4ee-^\	k&uuml;s-
4r;	4r;	8e-/	-sen;
.	.	8r;	.
4r	(8.ccc\L	4r	.
.	16ddd-X\Jk)	.	.
=14	=14	=14	=14
*^	*	*	*
(8d-X^/L	2.E-^\	(4ccc\	(4cc^\	dann,
8e-/	.	.	.	.
8d-/	.	8bb-\)	8b-\)	.
8e-/	.	8r	8r	.
8d-/	.	(8.bb-\L	4r	.
8e-/J)	.	.	.	.
.	.	16ccc\Jk)	.	.
=15	=15	=15	=15	=15
(8c^/L	2.A-\	(4bb-\	(4b-^\	dann_
8e-/	.	.	.	.
8c/	.	8aa-\)	8a-/)	.
8e-/	.	8r	8r	.
8c/	.	(8.aa-\L	8r	.
8e-/J)	.	.	8b-'\	je
.	.	16bb-\Jk)	.	.
=16	=16	=16	=16	=16
(8B-/L	2.E-^\	(4aa-^\	(4a-^/	doch
8d-/	.	.	.	.
8B-/	.	8gg\L)	8g/)	.
8d-/)	.	8ee-\	8e-/	er
(8B-/	.	8ff\	8f/	wird
8d-/J)	.	8gg\J	8g/	schon
=17	=17	=17	=17	=17
(8c^/L	4.A-\	(8.bb-\L	(8.b-/L	wis-
8e-/	.	.	.	.
.	.	16aa-\Jk	16a-/Jk)	.
8c/	.	8aa-\)	8a-/	-sen,
8e-/	8r	8r	8r	.
8c/	4r	[4cc^\ [4ccc^\	8cc\	was
8e-/J)	.	.	8cc\	du
=18	=18	=18	=18	=18
(8d-/L	2.E-^\	8.cc\] 8.ccc\L]	(8.cc^\L	al-
8e-/	.	.	.	.
.	.	16b-\ 16bb-\Jk	16b-\Jk	.
8d-/	.	8b-\ 8bb-\	8b-\)	-les,
8e-/	.	8r	8r	.
8d-/	.	[4b-\ [4bb-\	8b-\	was
8e-/J)	.	.	8b-\	du
=19	=19	=19	=19	=19
(8c/L	2.A-^\	8.b-\] 8.bb-\L]	8.b-^/L	al-
8e-/	.	.	.	.
.	.	16a-\ 16aa-\Jk	16a-/Jk	.
8c/	.	8a-\ 8aa-\	8a-/	-les,
8e-/	.	8r	8r	.
8c/	.	[4a-^\ [4aa-^\	8a-/	was
8e-/J)	.	.	8a-/	du
=20	=20	=20	=20	=20
8B-/ (8d-/L	2E-^\	4a-\] (4aa-\]	(4a-/	al-
8e-/	.	.	.	.
8B-/ 8d-/	.	8g\ 8gg\L)	8g/)	.
8e-/)	.	8b-'\ 8ee-'\	8e-/	-les
(8d-/	4E-\	8b-'\ 8ff'\	8f/	sa-
8e-/J)	.	8b-'\ 8gg'\J	8g/	-gen
=21	=21	=21	=21	=21
4c/	4A-\	8a-'\ 8aa-'\	4a-/	sollst
.	.	(8e-/L	.	.
*v	*v	*	*	*
8r	8c/	4r	.
(8E-\L	8e-/	.	.
8A-\	8c/	8cc\	Sag'
8E-\J)	8e-/J)	8cc\	ihm
=22	=22	=22	=22
2.E-\ 2.G\	(8B-/ 8d-/L	(8.cc\L	lei-
.	8e-/	.	.
.	.	16b-\Jk)	.
.	8B-/ 8d-/	8b-\	-se
.	8e-/	8r	.
.	8B-/ 8d-/	8b-\	wie
.	8e-/J)	8b-\	ein
=23	=23	=23	=23
*^	*	*	*
2E-\	2A-\	(8c/L	(4b-\	Kuss
.	.	8e-/	.	.
.	.	8c/	8a-/)	.
.	.	8e-/	8r	.
4A-/	4r	8c/	8a-/	mit
.	.	8e-/J)	8a-/	halb
*v	*v	*	*	*
=24	=24	=24	=24
2EE-/ 2E-/	(8B-/ 8d-/L	(4a-/	auf-
.	8e-/	.	.
.	8B-/ 8d-/	8g/)	.
.	8e-/	8e-/	-ge-
4E-\	8B-/ 8d-/	8f/	-schoss-
.	8e-/J)	8g/	-'nem
=25	=25	=25	=25
4.AA-/ 4.E-/	(8c/L	(8.b-/L	Mun-
.	8e-/	.	.
.	.	16a-/Jk)	.
.	8c/J)	8a-/	-de,
8r	8c'/ 8e-'/ 8g-'/L	8r	.
4AAA-/ 4AA-/	8c'/ 8e-'/ 8g-'/	8cc\	wo
.	8c'/ 8e-'/ 8g-'/J	8cc\	mich,
=26	=26	=26	=26
(4DD-/	8r	4.cc^\	um
.	(8c^/ 8e-^/ 8g-^/L	.	.
4D-\)	8d-/) 8f/	.	.
.	8d-'/ 8f'/	8b-'\	die
4r	8d-'/ 8f'/	8b-'\	heis-
.	8d-'/ 8f'/J	8b-'\	-se
=27	=27	=27	=27
4r	8r	4.b-^\	Stun-
*	*^	*	*
.	(4e-^/	8d-\L	.	.
4EE-/	.	8c\)	.	.
.	8e-/L	8c\	8a-/	-de,
4E-\	8e-'/	8c\	8a-/	sein
.	8e-'/J	8c\J	8a-/	Ge-
*	*v	*v	*	*
=28	=28	=28	=28
4.EE-/ 4.E-/	4.B-/ 4.d-/ 4.e-/	(8.a-/L	-dan-
.	.	16g/k	.
.	.	8dd-/J)	.
8EE-/ 8E-/L	8B-/ 8d-/ 8e-/L	8b-\	-ke
8EE-/ 8E-/	8B-/ 8d-/ 8e-/	8a-/	su-
8EE-/ 8E-/J	8B-/ 8d-/ 8e-/J	8g/	-chen
=29	=29	=29	=29
4.AAA-/ 4.AA-/	8c'/ 8e-'/L	4a-/	muss.
.	(8e-/	.	.
.	8c/	4r	.
(8E-\L	8e-/	.	.
8A-\	8c/	4r	.
8E-\J)	8e-/J	.	.
=30	=30	=30	=30
4A-;\	4c/);	4r;	.
==	==	==	==
*-	*-	*-	*-
!!!ENC: Craig Stuart Sapp
!!!END: 2004/05/18/
!!!EFL: 009/651
